!!!COM: Chopin, Fr&egrave;d&egrave;ric
!!!OTL: Waltz in E minor
!!!SCT: B. 56
**kern	**kern
*staff2	*staff1
*Ipiano	*Ipiano
*clefF4	*clefG2
*k[f#]	*k[f#]
*M3/4	*M3/4
4r	4BB/
=1	=1
2.EE\ 2.BB\	(8D#\L
.	8E\
.	8G\
.	8e\
.	8B\
.	8G\J
=2	=2
2.EE\ 2.BB\	8F#/L
.	8G/
.	8B/
.	8g/
.	8e/
.	8B/J
=3	=3
2.EE\ 2.BB\ 2.G\	8A#/L
.	8B/
.	8e/
.	8b/
.	8g/
.	8e/J)
=4	=4
2.EE\ 2.BB\ 2.E\ 2.G\	(8d#\L
.	8e\
.	8g\
.	8ee\
.	8b\
.	8g\J)
=5	=5
2.EE\ 2.BB\ 2.E\ 2.G\	(8f#\L
.	8g\
.	8b\
.	8gg\
.	8ee\
.	8b\J)
=6	=6
!!linebreak:original
2.EE\ 2.BB\ 2.E\ 2.G\	(8a#\L
.	8b\
.	8ee\
.	8bb\
.	8gg\
.	8ee\J
=7	=7
[2.EE\ [2.BB\ [2.E\ [2.G\	8dd#\L
.	8ee\
.	8gg\
.	8bb\
.	8eee\
.	16bL
.	16eeee\JJ
=8	=8
4EE\] 4BB\] 4E\] 4G\]	4ggg\) 4bbb\
4r	4r
4r	4r
=9	=9
4D#'\	4b'\
(4f#\ 4a\	8b'\L
.	8b'\J
4B\)	4b'\
=10	=10
4E'\	(8a#\L
.	8b\
(4e\ 4g\	8ee\
.	8gg\J
4B\)	4bb'\)
=11	=11
.	(cccq/L
4F#'\	8ccc\L
.	dddq/J
.	8bb\
(4d#\ 4a\	8aa#\
.	8bb\
4B\)	8ddd#\ 8fff#\
.	8bbb\J
=12	=12
!!linebreak:original
4G'\	4eee\ 4ggg\
(4e\ 4g\	4r
4B\)	4r
=13	=13
!!linebreak:original
.	(cccq/
4A'\	4bbb\)
*	*^
(4e\ 4f#\	2aaa/	8aaa\L
.	.	8fff#\J
4c\)	.	4ccc\
*	*v	*v
=14	=14
.	(bbq/
4B'\	4aaa'\)
*clefG2	*
*	*^
(4g/ 4b/	2ggg/	8ggg\L
.	.	8eee\J
4e/)	.	4bb\
*	*v	*v
=15	=15
.	(aaq/
4BB'/	4ggg'\)
*clefG2	*
*	*^
(4f#/ 4a/	2ggg/	8ggg\L
.	.	8ddd#\J
4B/)	.	4aa/
*	*v	*v
=16	=16
*^	*
4e/ 4g/	4E	(8gg\L 8eee\
.	.	8ccc\
*v	*v	*
4r	8bb\
.	8gg\
4r	8ee\
.	8cc\J)
=17	=17
4D#'\	4b'\
(4f#\ 4a\	8b'\L
.	8b'\J
4B\)	4b'\
=18	=18
!!linebreak:original
4E'\	(8a#\L
.	8b\
(4e\ 4g\	8ee\
.	8gg\J
4B\)	4bb'\)
=19	=19
!!pagebreak:original
.	(cccq/L
.	dddq/J
4F#'\	8ccc\L
.	8bb\
(4d#\ 4a\	8aa#\
.	8bb\
4B\)	8ddd#\ 8fff#\
.	8bbb\J
=20	=20
4G'\	4eee\ 4ggg\
(4e\ 4g\	4r
4B\)	4bb\
=21	=21
.	(cccq\
4A'\	4bbb\)
*	*^
(4e\ 4f#\	2aaa/	8aaa\L
.	.	8fff#\J
4c\)	.	4ccc\
*	*v	*v
=22	=22
.	(bbq/
4B'\	4aaa'\)
*clefG2	*
*	*^
(4g/ 4b/	2ggg/	8ggg\L
.	.	8eee\J
4e/)	.	4bb\
*	*v	*v
=23	=23
.	(aaq/
4BB'/	4ggg'\)
*clefG2	*
*	*^
(4f#/ 4a/	2ggg/	8ggg\L
.	.	8ddd#\J
4B/)	.	4aa/
*	*v	*v
=24	=24
!!linebreak:original
*^	*
4e/ 4g/	4E	4gg\ 4eee\
*v	*v	*
4r	4r
4r	4b\
=25	=25
!!linebreak:original
=	=
4E\	(8cc\L
.	8ff#\
4c\ 4g\	8aa\
.	8gg\
4E\	8ee\
.	8cc\J)
=26	=26
4D#\	(2cc^\
4B\ 4f#\	.
4D#\	4b\)
=27	=27
4Dn\	(8b-\L
.	8ee\
4B-\ 4fn\	8gg\
.	8ffn\
4D\	8dd\
.	8b-\J)
=28	=28
4C#/	(2b-^\
4A\ 4g\	.
4C#/	4a/)
=29	=29
4Cn/	(8a\L
.	8dd#\
4A\ 4e\	8ff#\
.	8ee\
4C/	8cc\
.	8a\J)
=30	=30
4BB/	(2a^/
4G\ 4e\	.
4BB/	4g/)
=31	=31
!!linebreak:original
4BB/	(8f#/L
.	8g/
4F#\ 4B\	8a/
.	8a#/
4D#\	8b/
.	8f#/J)
=32	=32
!!pagebreak:original
4E\	(2a^/
4e\	.
4B\	4g/)
=33	=33
4EE'/	8cc\L
.	8gg\
(4c\	8ccc\
.	8ccc\
4G\)	8ggg\
.	8cccc\J
=34	=34
4DD#'/	8bbb\L
.	8fff#\
(4B\	8bb\
.	8bb\
4F#\)	8ff#\
.	8b\J
=35	=35
4DDn'/	8b-\L
.	8ffn\
(4B-\	8bb-\
.	8bb-\
4F#\)	8fffn\
.	8bbb-\J
=36	=36
4CC#'/	8aaa\L
.	8eee\
(4A\	8aa\
.	8aa\
4E\)	8ee\
.	8a\J
=37	=37
4CCn'/	8a\L
.	8ee\
(4A\	8aa\
.	8aa\
4E\)	8eee\
.	8aaa\J
=38	=38
!!linebreak:original
4BBB'/	8ggg\L
.	8eee\
(4G\	8gg\
.	8gg\
4D\)	8ee\
.	8g\J
=39	=39
4BB'/	8ff#\L
.	8f#\
*^	*
(4e/	2F#\	8b\
.	.	8ff#\J
4d#/)	.	8a\L 8gg\
.	.	8ff#\J
*v	*v	*
=40	=40
4E\ 4e\	4g\ 4ee\
4r	8ee-\L
.	8dd\J
4r	8cc#\L
.	8ccn\J
=41	=41
4D#'\	4b'\
(4f#\ 4a\	8b'\L
.	8b'\J
4B\)	4b'\
=42	=42
4E'\	(8a#\L
.	8b\
(4e\ 4g\	8ee\
.	8gg\J
4B\)	4bb'\)
=43	=43
.	(cccq/L
.	16dddq/Jk
4F#'\	8ccc\L
.	8bb\
(4d#\ 4a\	8aa#\
.	8bb\
4B\)	8ddd#\ 8fff#\
.	8bbb\J
=44	=44
!!linebreak:original
4G'\	4eee\ 4ggg\
(4e\ 4g\	4r
4B\)	4bb\
=45	=45
.	(cccq\
4A'\	4bbb\)
*	*^
(4e\ 4f#\	2aaa/	8aaa\L
.	.	8fff#\J
4c\)	.	4ccc\
*	*v	*v
=46	=46
.	(bbq/
4B'\	4aaa'\)
*clefG2	*
*	*^
(4g/ 4b/	2ggg/	8ggg\L
.	.	8eee\J
4e/)	.	4bb\
*	*v	*v
=47	=47
.	(aaq/
4BB'/	4ggg'\)
*clefG2	*
*	*^
(4f#/ 4a/	2ggg/	8ggg\L
.	.	8ddd#\J
4B/)	.	4aa/
*	*v	*v
=48	=48
*^	*
4e/ 4g/	4E	(8gg\L 8eee\
.	.	8ccc\
*v	*v	*
4r	8bb\
.	8gg\
4b\	8ee\
.	8cc\J)
=49	=49
*clefF4	*
4D#'\	4b'\
(4f#\ 4a\	8b'\L
.	8b'\J
4B\)	4b'\
=50	=50
!!linebreak:original
4E'\	(8a#\L
.	8b\
(4e\ 4g\	8ee\
.	8gg\J
4B\)	4bb'\)
=51	=51
.	16cccq/L
.	16dddq/J
4F#'\	8ccc\L
.	8bb\
(4d#\ 4a\	8aa#\
.	8bb\
4B\)	8ddd#\ 8fff#\
.	8bbb\J
=52	=52
4G'\	4eee\ 4ggg\
(4e\ 4g\	4r
4B\)	4bb\
=53	=53
.	(cccq\
4A'\	4bbb\)
*	*^
(4e\ 4f#\	2aaa/	8aaa\L
.	.	8fff#\J
4c\)	.	4ccc\
*	*v	*v
=54	=54
.	(bbq/
4B'\	4aaa'\)
*clefG2	*
*	*^
(4g/ 4b/	2ggg/	8ggg\L
.	.	8eee\J
4e/)	.	4bb\
*	*v	*v
=55	=55
!!linebreak:original
.	(aaq/
4BB'/	4ggg'\)
*clefG2	*
*	*^
(4f#/ 4a/	2ggg/	8ggg\L
.	.	8ddd#\J
4B/)	.	4aa/
*	*v	*v
=56	=56
4e/ 4g/	4gg\ 4eee\
4E'/	4r
4r	8a#\L
.	8b\J
=57:|!	=57:|!
4e'/ 4g'/	4gg\ 4eee\
4E'/	4r
4r	4r
=58	=58
*k[f#c#g#d#]	*k[f#c#g#d#]
.	eq/L
.	16f#q/Jk
4BB'/	(2.cc#\
*clefG2	*
(4g#/	.
4B/)	.
=59	=59
4BB'/	2.b\
*clefG2	*
(4g#/	.
4B/)	.
=60	=60
!!linebreak:original
4E/	8cc#\L
.	8dd#\
(4g#/	8ee\
.	8ff#\
4B/)	8gg#\
.	8aa\J)
=61	=61
!!pagebreak:original
4G#'/	(2ccc#^\
(4b/	.
4e/)	4bb\)
=62	=62
.	(bq/
4BB'/	(2.gg#\)
*clefG2	*
(4b/	.
4B/)	.
=63	=63
.	(a#q/
4BB'/	2.ggn\)
(4c#\	.
4B\)	.
=64	=64
.	(a#q/
4BB'/	8ff#\L)
.	8gg#\
(4d#\	8ff#\
.	8ee\
4B\)	8dd#\
.	8cc#\J
=65	=65
.	(g#q/
4E'\	(2cc#\)
(4e\	.
4B\)	4b\)
=66	=66
.	(d#q/L
.	16f#q/Jk
4BB'/	(2.cc#\)
*clefG2	*
(4a/	.
4B/)	.
=67	=67
!!linebreak:original
4BB'/	2.b\)
*clefG2	*
(4a/	.
4B/)	.
=68	=68
!!linebreak:original
4E'/ 4e'/	(8cc#\L
.	8dd#\
(4a/	8ee\
.	8ff#\
4B/)	8gg#\
.	8aa\J)
=69	=69
4G#'/	(2ccc#^\
(4b/	.
4e/)	4bb\
=70	=70
.	(bq/
4BB'/	2.gg#\)
*clefG2	*
(4b/	.
4B/)	.
=71	=71
.	(a#q/
4BB'/	2.ggn\)
(4c#\ 4e\	.
4B\)	.
=72	=72
.	(ff#q/L
.	gg#q/J
4BB'/	4f#)
(4d#\ 4f#\	8ee#\L
.	8ff#\
4B\)	8aa\
.	8gg#\J
=73	=73
4E\ 4B\ 4e\	8g#\L 8een\
.	8ff#\
4r	8gg#\
.	8dd#\
4r	8ee\
.	8cc#\J
=74	=74
!!linebreak:original
.	d#q/L
.	16f#q/Jk
4BB'/	(2.cc#\
*clefG2	*
(4a\	.
4B/)	.
=75	=75
4BB'/	2.b\
*clefG2	*
(4a\	.
4B/)	.
=76	=76
4E'/	8cc#\L
.	8dd#\
(4g#/	8ee\
.	8ff#\
4B/)	8gg#\
.	8aa\J
=77	=77
4G#'/	(2ccc#^\)
(4b/	.
4e/)	4bb\)
=78	=78
.	(bq/
4BB'/	(2.gg#\)
*clefG2	*
(4b/	.
4B/)	.
=79	=79
*clefF4	*
.	a#q/
4BB'/	2.ggn\)
(4c#\	.
4B\)	.
=80	=80
!!linebreak:original
4BB'/	(8an\L 8ff#\
.	8gg#\
(4d#\	8ff#\
.	8ee\
4B\)	8dd#\
.	8cc#\J
=81	=81
.	(g#q/
4E'\	2cc#\)
(4e\	.
4B\)	4b\)
=82	=82
.	d#q/L
.	16f#q/Jk
4BB'/	(2.cc#\
*clefG2	*
(4a/	.
4B/)	.
=83	=83
4E'\	2.b\
*clefG2	*
(4a/	.
4B/)	.
=84	=84
4E'\	8cc#\L
.	8dd#\
(4g#\	8ee\
.	8ff#\
4B\)	8gg#\
.	8aa\J)
=85	=85
4G#'\	(2ccc#\
(4b\	.
4e\)	4bb\)
=86	=86
!!linebreak:original
.	(bq/
4BB'/	2.gg#\)
*clefG2	*
(4b/	.
4e/)	.
=87	=87
.	(a#q/
4BB'/	2.ggn\)
(4c#\ 4e\	.
4B\)	.
=88	=88
.	(ff#q/L
.	16gg#q/Jk
4BB'/	4an\) 4ff#\
(4d#\ 4f#\	(8ee#\L
.	8ff#\
4B\)	8aa\
.	8gg#\J
=89	=89
4E\ 4B\ 4e\	4g#\ 4ee\
4r	4r
4r	4g#/)
=90	=90
(8FFF##/L	2.G#/ 2.B#/ 2.d#/ 2.g#/
8GGG#/	.
8BBB#/	.
8DD#/	.
8FF##/	.
8GG#/J)	.
=91	=91
4G#\	2B#/ 2d#/ 2g#/
4r	.
4CC#/	4G#/ 4c#/ 4e/ 4g#/
=92	=92
!!pagebreak:original
(8FFF##/L	2.G#/ 2.B#/ 2.d#/ 2.g#/
8GGG#/	.
8BBB#/	.
8DD#/	.
8FF##/	.
8GG#/J)	.
=93	=93
2G#\	2B#/ 2d#/ 2g#/
4C#/	4G#/ 4c#/ 4e/ 4g#/
=94	=94
*	*^
4D#\	2.B/ 2.d#/	2.B/
(8C##\L	.	.
8D#\	.	.
8E\	.	.
8D#\J)	.	.
*	*v	*v
=95	=95
(4.d#^\	2.g#^/ 2.b^/
8B\L	.
8G#\	.
8D#\J)	.
=96	=96
(4.DD#/	2.c#\ 2.f##\ 2.dd#\
8CC#/L	.
8BBB/	.
8AAA#/J	.
=97	=97
4GGG#/)	4B/ 4g#/ 4b/
4r	4r
4r	[4B/
=98	=98
!!linebreak:original
*	*^
4BBB'/	2.B/_ [2.d#/ [2.f#/	([2.cc#/
*clefG2	*	*
(4a/	.	.
4B/)	.	.
*	*v	*v
=99	=99
!!pagebreak:original
*	*^
4BB'/	2.B/] 2.d#/] 2.f#/]	2.cc#/])
*clefG2	*	*
(4a/	.	.
4B/)	.	.
*	*v	*v
=100	=100
4E'\	8cc#\L
.	8dd#\
(4g#\	8ee\
.	8ff#\
4B\)	8gg#\
.	8aa\J
=101	=101
4G#'\	(2ccc#\
(4cc#\	.
4e\)	4bb\)
=102	=102
.	(bq/
4BB'/	2.gg#\)
*clefG2	*
(4b/	.
4B/)	.
=103	=103
.	a#q/
4BB'/	2.ggn\
(4c#\	.
4B\)	.
=104	=104
.	(aq/
4BB'/	8ff#\L)
.	8gg#\
(4d#\	8ff#\
.	8ee\
4B\)	8dd#\
.	8cc#\J
=105	=105
!!linebreak:original
.	(g#q/
4E'\	(2cc#\)
(4e\	.
4B\)	4b\)
=106	=106
.	(d#q/L
.	f#q/J
(8BB\L	(2.cc#\)
8F#\	.
8A\	.
8B\	.
8A\	.
8F#\J)	.
=107	=107
(8BB\L	2.b\
8F#\	.
8A\	.
8B\	.
8A\	.
8F#\J)	.
=108	=108
(8BB\L	8cc#\L
8E\	8dd#\
8G#\	8ee\
8B\	8ff#\
8G#\	8gg#\
8E\J)	8aa\J)
=109	=109
8BB\L	(2ccc#\
8E\	.
8G#\	.
8e\	.
8G#\	4bb\)
8E\J	.
=110	=110
.	(bq/
8BB\L	(2.gg#\)
8E\	.
8G#\	.
8B\	.
8G#\	.
8E\J	.
=111	=111
!!linebreak:original
.	(a#q/
8BB\L	(2.ggn\)
8E\	.
8Gn\	.
8c#\	.
8G\	.
8E\J	.
=112	=112
.	(16ff#q/LL
.	16gg#q/JJ
8BB\L	4f#)
8F#\	.
8A\	8ee#\L
8d#\	8ff#\
8A\	8aa\
8F#\J	8gg#\J
=113	=113
4E\ 4e\	4g#\) 4een\
4r	4r
4r	4g#/
=114	=114
(8FFF##/L	2.G#/ 2.B#/ 2.d#/ 2.g#/
8GGG#/	.
8BBB#/	.
8DD#/	.
8FF##/	.
8GG#/J)	.
=115	=115
4G#\	2B#/ 2d#/ 2g#/
4r	.
4CC#/	4G#/ 4c#/ 4e/ 4g#/
=116	=116
!!linebreak:original
(8FFF##/L	2.G#/ 2.B#/ 2.d#/ 2.g#/
8GGG#/	.
8BBB#/	.
8DD#/	.
8FF##/	.
8GG#/J)	.
=117	=117
2G#\	2B#/ 2d#/ 2g#/
4C#/	4G#/ 4c#/ 4e/ 4g#/
=118	=118
*	*^
4D#\	2.B/ 2.d#/	2.B/
(8C##\L	.	.
8D#\	.	.
8E\	.	.
8D#\J)	.	.
*	*v	*v
=119	=119
(4.d#^\	2.g#^/ 2.b^/
8B\L	.
8G#\	.
8D#\J)	.
=120	=120
(4.DD#/	2.c#^\ 2.f##^\ 2.dd#^\
8CC#/L	.
8BBB/	.
8AAA#/J	.
=121	=121
4GGG#/)	4B/ 4g#/ 4b/
4r	4r
4r	4B/
=122	=122
!!linebreak:original
*	*^
4BBB'/	[2.B\ [2.d#\ [2.f#\	([2.cc#/
*clefG2	*	*
(4a/	.	.
4B/)	.	.
=123	=123	=123
4BB'/	2.B\] 2.d#\] 2.f#\]	2.cc#/])
*clefG2	*	*
(4a/	.	.
4B/)	.	.
*	*v	*v
=124	=124
4E'\	8cc#\L
.	8dd#\
(4g#\	8ee\
.	8ff#\
4B\)	8gg#\
.	8aa\J
=125	=125
4G#\	(2ccc#\
*clefG2	*
(4b/	.
4e/)	4bb\)
=126	=126
.	(bq/
4BB'/	2.gg#\)
*clefG2	*
(4b/	.
4B/)	.
=127	=127
!!linebreak:original
.	(a#q/
4BB'/	2.ggn\)
(4c#\	.
4B\)	.
=128	=128
.	aq/
4BB'/	(8ff#\L
.	8gg#\
(4d#\	8ff#\
.	8ee\
4B\)	8dd#\
.	8cc#\J)
=129	=129
.	g#q/
4E'\	(2cc#\
(4e\	.
4B\)	4b\)
=130	=130
.	(d#q/L
.	f#q/J
(8BB\L	(2.cc#\)
8F#\	.
8A\	.
8B\	.
8A\	.
8F#\J)	.
=131	=131
(8BB\L	2.b\
8F#\	.
8A\	.
8B\	.
8A\	.
8F#\J)	.
=132	=132
!!pagebreak:original
(8BB\L	8cc#\L
8E\	8dd#\
8G#\	8ee\
8B\	8ff#\
8G#\	8gg#\
8E\J)	8aa\J)
=133	=133
!!pagebreak:original
(8BB\L	(2ccc#\
8E\	.
8G#\	.
8e\	.
8G#\	4bb\)
8E\J)	.
=134	=134
.	(bq/
(8BB\L	2.gg#\)
8E\	.
8G#\	.
8B\	.
8G#\	.
8E\J)	.
=135	=135
.	(a#q/
(8BB\L	2.ggn\)
8E\	.
8Gn\	.
8c#\	.
8G\	.
8E\J)	.
=136	=136
.	(ff#q/L
.	16gg#q/Jk
(8BB\L	4f#)
8F#\	.
8A\	(8ee#\L
8d#\	8ff#\
8A\	8aa\
8F#\J)	8gg#\J
=137	=137
!!linebreak:original
4E\ 4e\	4g#\) 4een\
4r	4r
4r	4b\
=138||	=138||
!!linebreak:original
*k[f#]	*k[f#]
4D#'\	4b'\
*clefG2	*
(4f#/ 4a/	8b'\L
.	8b'\J
4B/)	4b'\
=139	=139
4E'\	(8a#\L
.	8b\
*clefG2	*
(4e/ 4g/	8ee\
.	8gg\J)
4B/)	4bb'\
=140	=140
.	(cccq/L
.	16dddq/J
4F#'\	8ccc\L
.	8bb\
*clefG2	*
(4d#/ 4a/	8aa#\
.	8bb\
4B/)	8ddd#\ 8fff#\
.	8bbb\J
=141	=141
4BBB'/	4eee\ 4ggg\
*clefG2	*
(4e/ 4g/	4r
4B/)	4bb\
=142	=142
.	(cccq/
4A'/	4bbb\)
*	*^
(4e/ 4f#/	2aaa/	8aaa\L
.	.	8fff#\J
4c/)	.	4ccc\
*	*v	*v
=143	=143
!!linebreak:original
.	(bbq/
4B'/	4aaa\)
*	*^
(4g/ 4b/	2ggg/	8ggg\L
.	.	8eee\J
4e/)	.	4bb\
*	*v	*v
=144	=144
.	(aaq/
4BB'/	4ggg\)
*clefG2	*
*	*^
(4f#/ 4a/	2fff#/	8fff#\L
.	.	8ddd#\J
4B/)	.	4aa/
*	*v	*v
=145	=145
*^	*
4e/ 4g/	4E	8gg\L 8eee\
.	.	8ccc\
*v	*v	*
4r	8bb\
.	8gg\J
4r	8ee\L
.	8cc\J
=146	=146
4D#'\	4b'\
*clefG2	*
4f#/ 4a/	8b'\L
.	8b'\J
4B/	4b'\
=147	=147
*clefF4	*
4E'\	(8a#\L
.	8b\
*clefG2	*
(4f#/ 4a/	8ee\
.	8gg\J)
4B/)	4bb'\
=148	=148
!!linebreak:original
*	*^
4F#'\	8ccc\L	24r
.	.	24ccc
.	.	24bb
*	*v	*v
.	8bb\
*clefG2	*
(4d#/ 4a/	8aa#\
.	8bb\
4B/)	8ddd#\ 8fff#\
.	8bbb\J
=149	=149
4G#/ 4d/ 4fn/ 4b/	4ddd\ 4fffn\ 4dddd\
4r	4r
4r	4ddd\
=150	=150
4AA\ 4A\	8fffn^\L
.	8ccc\ 8eee\
2c\ 2d\ 2en\	8ffn^\
.	8ccc\ 8eee\
.	8fff\
.	8ccc\J 8eee\
=151	=151
4AA#\ 4A#\	8fff#\L
.	8ccc#\ 8eee\
2c#\ 2e#\ 2f#\	8ff#^\
.	8ccc#\ 8eee\
.	8fff#\
.	8ccc#\J 8eee\
=152	=152
!!linebreak:original
4BB\ 4B\	8ggg\L
.	8ccc\ 8eee\
2B\ 2e\ 2g\	8gg^\
.	8bb\ 8eee\
.	8ggg\
.	8bb\J 8eee\
=153	=153
!!pagebreak:original
4Cn\ 4cn\	8ggg\L
.	8aa#\ 8eee\
2c\ 2e\ 2g\	8gg\
.	8aa#\ 8eee\
.	8ggg\
.	8aa#\J 8eee\
=154	=154
2C#\ 2G\ 2A#\ 2e\	8ggg\L
.	8gg\
.	8ccc#\
.	8eee\
4EE/ 4E/	8ggg\
.	8gg\J
=155	=155
2GG/ 2G/	8eee^\L
.	8ee\
.	8aa#\
.	8ccc#\
4AA#\ 4A#\	8eee\
.	8ee\J
=156	=156
2C#\ 2c#\	8ccc#^\L
.	8cc#\
.	8gg\
.	8aa#\
4E\ 4e\	8ccc#\
.	8cc#\J
=157	=157
!!pagebreak:original
4G^\ 4g^\	8aa#^\L
.	8a#\
4r	8ee\
.	8gg\
4Cn\ 4G\ 4A#\ 4e\	8aa#\
.	8a#\J
=158	=158
4E'\ 4G'\ 4e'\	8b\L 8ee\
.	8bb\
4r	8aa#\
.	8bb\
4E'\ 4A'\ 4d#'\	8b\ 8ff#\
.	8gg\J
=159	=159
4E\ 4G\ 4e\	4b\ 4ee\
4r	(8e\L
.	8g\
4r	8b\
.	8ee\J)
=160	=160
4EE/	(8gg\L
.	8bb\
2r	8eee\
.	8eeee\
.	8bbb\
.	8ggg\J)
=161	=161
2.r	(8eee\L
.	8bb\
.	8gg\
.	8ee\
.	8b\
.	8g\J)
=162	=162
!!linebreak:original
2.r	8e/L
.	8B/J
.	8G\L
.	8E\J
.	8BB\L
.	8GG\J
=163	=163
!!linebreak:original
4EEE/ 4EE/	2.r
2r	.
=164	=164
4BB\ 4D#\ 4F#\ 4B\	4b\ 4dd#\ 4ff#\ 4bb\
4r	4r
4r	4r
=165	=165
4EE/ 4GG/ 4BB/ 4E/	4ee\ 4gg\ 4bb\ 4eee\
4r	4r
4r	4r
=166	=166
4BBB/ 4DD#/ 4FF#/ 4BB/	4bb\ 4ddd#\ 4fff#\ 4bbb\
4r	4r
4r	4r
=167	=167
4EEE/ 4EE/	4eee\ 4ggg\ 4bbb\ 4eeee\
4r	4r
4r	4r
==	==
*-	*-
